X:3
T:The Abbot's Way
M:4/4
L:1/8
R:Reel
C:Gris Sanderson
Q:400
N:The Abbot's Way is an ancient track on Dartmoor used by 
N:the monks of Buckfast Abbey. It's also a good place to go 
N:hunting at a certain season for wild mushrooms, and some 
N:pretty wild experiences have been had there. This reel was 
N:written to commemorate one of those fun times with a couple 
N:of French friends.It is on the Spyka album.
K:Amix
e2dBA3a|geag d3f|edfd eA~A2|BdAF DEGA|
e2dBA3a|geag d3e|fdBd eA~A2|1BdAFE4:|2Bdfa edBG||
|:AGBd G3A|BGBd A3G|BGBd GABG|BdGB A3G|
BGBd G3A|BGBd A3G|BABd GABA|BdBd edeg||
